!!!!SEGMENT: pl-cz--iii-112--006_dankowski-adalbert--vesperae-d-et-misericordia.krn
!!!cenid: 18xx:803
!!!COM: Dankowski, Adalbert
!!!COM-rismID: pe30000793
!!!CDT: ~1760-~1836
!!!CNT: Polish
!!!OPR: Vesperae D
!!!OTL: Et misericordia
!!!OMV: 006
!!!PDT:
!!!AGN: Sacred; Vespers
!!!SMS-siglum: PL-CZ
!!!SMS-shelfmark: III-112
!!!SMS-shelfwork: 001-006 M
!!!SMS-variant:
!!!SMS-altvar:
!!!NIFC-rismSourceID: 300033579
!!!NIFC-islandoraID: pl-cz:34440
!!!URL-pdf-islandora: https://repozytorium.nifc.pl/islandora/object/pl-cz%3A34440/datastream/PDF/view
!!!URL-scan:
!!!ONB-nifc: UWAGA: części Vesperae: Dixit Dominus, Tecum principium, Dominus, Gloria patri, Nunc dimittis – Magnificat, Et misericordia, Gloria patri
!!!AIN: 1 alto 1 bass 2 empty 1 organ 1 tenor 2 violn 1 vox
!!!key: A
**kern	**fba	**dynam	**kern	**dynam	**kern	**dynam	**kern	**kern	**kern	**kern	**text	**kern	**kern
*part9	*part9	*part9	*part8	*part8	*part7	*part7	*part6	*part5	*part4	*part3	*part3	*part2	*part1
*staff9	*	*	*staff8	*	*staff7	*	*staff6	*staff5	*staff4	*staff3	*staff3	*staff2	*staff1
*Iorgan	*	*	*Ivioln	*	*Ivioln	*	*Ibass	*Itenor	*Ialto	*Ivox	*	*Iempty	*Iempty
*I"Organo	*	*	*I"Violino Secondo	*	*I"Violino Primo	*	*I"Basso	*I"Tenore	*I"Alto	*I"Canto	*	*I"Clarino Secondo	*I"Clarino Primo
*I'org	*	*	*I'vl 2	*	*I'vl 1	*	*I'B	*I'T	*I'A	*I'S	*	*I'clno 2	*I'clno 1
*ICklav	*	*	*ICstr	*	*ICstr	*	*ICvox	*ICvox	*ICvox	*ICvox	*	*ICbras	*ICbras
*clefF4	*	*	*clefG2	*	*clefG2	*	*clefF4	*clefC4	*clefC3	*clefC1	*	*clefG2	*clefG2
*	*	*	*	*	*	*	*	*	*	*	*	*ITrd-1c-2	*ITrd-1c-2
*k[f#c#g#]	*	*	*k[f#c#g#]	*	*k[f#c#g#]	*	*k[f#c#g#]	*k[f#c#g#]	*k[f#c#g#]	*k[f#c#g#]	*	*k[f#c#g#]	*k[f#c#g#]
*A:	*	*	*A:	*	*A:	*	*A:	*A:	*A:	*A:	*	*A:	*A:
*M3/4	*	*	*M3/4	*	*M3/4	*	*M3/4	*M3/4	*M3/4	*M3/4	*	*M3/4	*M3/4
=1	=1	=1	=1	=1	=1	=1	=1	=1	=1	=1	=1	=1	=1
*	*	*	*2\right	*	*2\right	*	*	*	*	*	*	*	*
!LO:TX:rj:b:t=Et miſericordia	!	!	!LO:TX:rj:b:t=Et miſericordia	!	!LO:TX:rj:b:t=Et miſericordia	!	!	!	!	!	!	!	!
!LO:TX:a:i:t=Solo	!	!	!LO:TX:a:i:t=Solo	!	!LO:TX:a:i:t=Solo	!	!	!	!	!	!	!	!LO:TX:a:t=Canto Solo Tacet
!LO:TX:a:B:t=andan	!	!	!LO:TX:a:B:t=andan	!	!LO:TX:rj:a:B:t=andan&colon;	!	!LO:TX:a:t=Canto Solo Tacet	!LO:TX:a:t=Canto Solo Tacet	!LO:TX:a:t=Canto Solo Tacet	!LO:TX:a:B:t=and &colon;	!	!LO:TX:a:t=Canto Solo Tacet	!LO:TX:a:B:t=Andante
8A\L	.	.	2cc#\	.	2ee\	.	2.ryy	2.ryy	2.ryy	2.r	.	2.ryy	2.ryy
8A\	.	.	.	.	.	.	.	.	.	.	.	.	.
8A\	.	.	.	.	.	.	.	.	.	.	.	.	.
8A\	.	.	.	.	.	.	.	.	.	.	.	.	.
8A\	4 2	.	8dd\L	.	8ff#\L	.	.	.	.	.	.	.	.
8A\J	_ _	.	8b\J	.	8dd\J	.	.	.	.	.	.	.	.
=2	=2	=2	=2	=2	=2	=2	=2	=2	=2	=2	=2	=2	=2
8A\L	x 3	.	4.a/	.	4.cc#\	.	2.ryy	2.ryy	2.ryy	2.r	.	2.ryy	2.ryy
8A\	_	.	.	.	.	.	.	.	.	.	.	.	.
8A\	.	.	.	.	.	.	.	.	.	.	.	.	.
8A\	.	.	16g#/LL	.	16b\LL	.	.	.	.	.	.	.	.
.	.	.	16a/JJ	.	16cc#\JJ	.	.	.	.	.	.	.	.
8A\	4 2	.	8b\L	.	8dd\L	.	.	.	.	.	.	.	.
8A\J	_ _	.	16a\L	.	16cc#\L	.	.	.	.	.	.	.	.
.	.	.	16b\JJ	.	16dd\JJ	.	.	.	.	.	.	.	.
=3	=3	=3	=3	=3	=3	=3	=3	=3	=3	=3	=3	=3	=3
8A\L	x 3	.	2cc#\	.	2ee\	.	2.ryy	2.ryy	2.ryy	2.r	.	2.ryy	2.ryy
8A\	_	.	.	.	.	.	.	.	.	.	.	.	.
8A\	.	.	.	.	.	.	.	.	.	.	.	.	.
8A\	.	.	.	.	.	.	.	.	.	.	.	.	.
8A\	4 2	.	8dd\L	.	8ff#\L	.	.	.	.	.	.	.	.
8A\J	_ _	.	8b\J	.	8dd\J	.	.	.	.	.	.	.	.
=4	=4	=4	=4	=4	=4	=4	=4	=4	=4	=4	=4	=4	=4
4A\	.	.	8b/L	.	8dd\L	.	2.ryy	2.ryy	2.ryy	2.r	.	2.ryy	2.ryy
.	.	.	16a/L	.	16cc#\L	.	.	.	.	.	.	.	.
.	.	.	16b/JJ	.	16dd\JJ	.	.	.	.	.	.	.	.
4AA/	x 3	.	16a/LL	.	16cc#\LL	.	.	.	.	.	.	.	.
.	.	.	16g#/	.	16b\	.	.	.	.	.	.	.	.
.	.	.	16a/	.	16cc#\	.	.	.	.	.	.	.	.
.	.	.	16b/JJ	.	16dd\JJ	.	.	.	.	.	.	.	.
.	.	.	.	.	8qff#/	.	.	.	.	.	.	.	.
!	!	!	!LO:LB:g=original	!	!	!	!	!	!	!	!	!	!
.	.	.	8qqdd	.	.	.	.	.	.	.	.	.	.
8r	.	.	8cc#/L	.	8ee\L	.	.	.	.	.	.	.	.
8A\	.	.	16b/L	.	16dd\L	.	.	.	.	.	.	.	.
.	.	.	16a/JJ	.	16cc#\JJ	.	.	.	.	.	.	.	.
!LO:LB:g=original	!	!	!	!	!LO:LB:g=original	!	!	!	!	!	!	!	!
=5	=5	=5	=5	=5	=5	=5	=5	=5	=5	=5	=5	=5	=5
4E\	4	.	8a/L	.	8cc#\L	.	2.ryy	2.ryy	2.ryy	2.r	.	2.ryy	2.ryy
.	.	.	16g#/L	.	16b\L	.	.	.	.	.	.	.	.
.	.	.	16a/JJ	.	16cc#\JJ	.	.	.	.	.	.	.	.
4EE/	3	.	16g#/LL	.	16b\LL	.	.	.	.	.	.	.	.
.	.	.	16f#/	.	16a\	.	.	.	.	.	.	.	.
.	.	.	16g#/	.	16b\	.	.	.	.	.	.	.	.
.	.	.	16a/JJ	.	16cc#\JJ	.	.	.	.	.	.	.	.
8r	.	.	8b\L	.	8dd\L	.	.	.	.	.	.	.	.
8G#\	6 5	.	16cc#\L	.	16ee\L	.	.	.	.	.	.	.	.
.	.	.	16b\JJ	.	16dd\JJ	.	.	.	.	.	.	.	.
=6	=6	=6	=6	=6	=6	=6	=6	=6	=6	=6	=6	=6	=6
4A\	4	.	8b\L	.	8dd\L	.	2.ryy	2.ryy	2.ryy	2.r	.	2.ryy	2.ryy
.	.	.	16a\L	.	16cc#\L	.	.	.	.	.	.	.	.
.	.	.	16b\JJ	.	16dd\JJ	.	.	.	.	.	.	.	.
4AA/	3	.	16a/LL	.	16cc#\LL	.	.	.	.	.	.	.	.
.	.	.	16g#/	.	16b\	.	.	.	.	.	.	.	.
.	.	.	16a/	.	16cc#\	.	.	.	.	.	.	.	.
.	.	.	16b/JJ	.	16dd\JJ	.	.	.	.	.	.	.	.
8r	.	.	8cc#\L	.	16ee\LL	.	.	.	.	.	.	.	.
.	.	.	.	.	16ff#\	.	.	.	.	.	.	.	.
8A\	.	.	8cc#\J	.	16gg#\	.	.	.	.	.	.	.	.
.	.	.	.	.	16aa\JJ	.	.	.	.	.	.	.	.
=7	=7	=7	=7	=7	=7	=7	=7	=7	=7	=7	=7	=7	=7
4D\	6	.	8dd\L	.	8ff#\L	.	2.ryy	2.ryy	2.ryy	2.r	.	2.ryy	2.ryy
.	.	.	16cc#\L	.	16ee\L	.	.	.	.	.	.	.	.
.	.	.	16b\JJ	.	16dd\JJ	.	.	.	.	.	.	.	.
4E\	4	.	4a/	.	4cc#\	.	.	.	.	.	.	.	.
4EE/	3	.	4g#/	.	4b\	.	.	.	.	.	.	.	.
!	!	!	!LO:LB:g=original	!	!	!	!	!	!	!	!	!	!
=8	=8	=8	=8	=8	=8	=8	=8	=8	=8	=8	=8	=8	=8
4AA/	.	.	8a/L	.	8cc#\L	.	2.ryy	2.ryy	2.ryy	2.r	.	2.ryy	2.ryy
.	.	.	8cc#/J	.	8ee\J	.	.	.	.	.	.	.	.
4AA/	.	.	4a/	.	4cc#\	.	.	.	.	.	.	.	.
4r	.	.	4r	.	4r	.	.	.	.	.	.	.	.
!	!	!	!	!	!LO:LB:g=original	!	!	!	!	!	!	!	!
=9	=9	=9	=9	=9	=9	=9	=9	=9	=9	=9	=9	=9	=9
*	*	*	*	*	*	*	*	*	*	*2\right	*	*	*
!	!	!LO:DY:rj:a:t=p&colon;	!	!LO:DY:rj:a:t=p&colon;	!	!LO:DY:rj:a:t=p&colon;	!	!	!	!LO:TX:rj:a:i:t=Solo	!	!	!
8A\L	.	p	2cc#\	p	2ee\	p	2.ryy	2.ryy	2.ryy	2ee\	Et	2.ryy	2.ryy
8A\	.	.	.	.	.	.	.	.	.	.	.	.	.
8A\	.	.	.	.	.	.	.	.	.	.	.	.	.
8A\	.	.	.	.	.	.	.	.	.	.	.	.	.
8A\	7 2	.	8dd\L	.	8ff#\L	.	.	.	.	8ff#\L	mi-	.	.
8A\J	_ _	.	8b\J	.	8dd\J	.	.	.	.	8dd\J	.	.	.
=10	=10	=10	=10	=10	=10	=10	=10	=10	=10	=10	=10	=10	=10
8A\L	x 3	.	4.a/	.	4.cc#\	.	2.ryy	2.ryy	2.ryy	(4.cc#\	-ſe-	2.ryy	2.ryy
8A\	_	.	.	.	.	.	.	.	.	.	.	.	.
8A\	.	.	.	.	.	.	.	.	.	.	.	.	.
8A\	.	.	16g#/LL	.	16b\LL	.	.	.	.	16b\LL	.	.	.
.	.	.	16a/JJ	.	16cc#\JJ	.	.	.	.	16cc#\JJ)	.	.	.
8A\	4 2	.	8b\L	.	8dd\L	.	.	.	.	8dd\L	-ri-	.	.
8A\J	_ _	.	16a\L	.	16cc#\L	.	.	.	.	16cc#\L	.	.	.
.	.	.	16b\JJ	.	16dd\JJ	.	.	.	.	16dd\JJ	.	.	.
!LO:LB:g=original	!	!	!	!	!	!	!	!	!	!	!	!	!
=11	=11	=11	=11	=11	=11	=11	=11	=11	=11	=11	=11	=11	=11
8A\L	x 3	.	2cc#\	.	2ee\	.	2.ryy	2.ryy	2.ryy	2ee\	-cor-	2.ryy	2.ryy
8A\	x _	.	.	.	.	.	.	.	.	.	.	.	.
8A\	.	.	.	.	.	.	.	.	.	.	.	.	.
8A\	.	.	.	.	.	.	.	.	.	.	.	.	.
8A\	4 2	.	8dd\L	.	8ff#\L	.	.	.	.	8ff#\	-di-	.	.
8A\J	.	.	8b\J	.	8dd\J	.	.	.	.	8dd\	-a	.	.
.	_ _	.	.	.	.	.	.	.	.	.	.	.	.
!	!	!	!	!	!	!	!	!	!	!LO:LB:g=original	!	!	!
=12	=12	=12	=12	=12	=12	=12	=12	=12	=12	=12	=12	=12	=12
4A\	.	.	8b/L	.	8dd\L	.	2.ryy	2.ryy	2.ryy	8dd\L	e-	2.ryy	2.ryy
.	.	.	16a/L	.	16cc#\L	.	.	.	.	16cc#\L	.	.	.
.	.	.	16b/JJ	.	16dd\JJ	.	.	.	.	16dd\JJ	.	.	.
4AA/	5 3	.	16a/LL	.	16cc#\LL	.	.	.	.	4cc#\	-jus	.	.
.	.	.	16g#/	.	16b\	.	.	.	.	.	.	.	.
.	.	.	16a/	.	16cc#\	.	.	.	.	.	.	.	.
.	.	.	16b/JJ	.	16dd\JJ	.	.	.	.	.	.	.	.
.	.	.	8qdd/	.	.	.	.	.	.	.	.	.	.
8r	.	.	8cc#/L	.	8ee\L	.	.	.	.	8ee\	a	.	.
8A\	.	.	16b/L	.	16dd\L	.	.	.	.	16dd\LL	pro-	.	.
.	.	.	16a/JJ	.	16cc#\JJ	.	.	.	.	16cc#\JJ	.	.	.
=13	=13	=13	=13	=13	=13	=13	=13	=13	=13	=13	=13	=13	=13
4E\	4	.	8a/L	.	8cc#\L	.	2.ryy	2.ryy	2.ryy	8cc#\	-ge-	2.ryy	2.ryy
.	.	.	16g#/L	.	16a\L	.	.	.	.	16b\LL	-ni-	.	.
.	.	.	16a/JJ	.	16cc#\JJ	.	.	.	.	16cc#\JJ	.	.	.
4EE/	3	.	16g#/LL	.	16b\LL	.	.	.	.	4b\	-es	.	.
.	.	.	16f#/	.	16a\	.	.	.	.	.	.	.	.
.	.	.	16g#/	.	16b\	.	.	.	.	.	.	.	.
.	.	.	16a/JJ	.	16cc#\JJ	.	.	.	.	.	.	.	.
!	!	!	!	!	!LO:LB:g=original	!	!	!	!	!	!	!	!
8r	.	.	8b\L	.	8dd\L	.	.	.	.	8dd\	in	.	.
8G#\	6 5	.	16cc#\L	.	16ee\L	.	.	.	.	16ee\LL	pro-	.	.
.	.	.	16b\JJ	.	16dd\JJ	.	.	.	.	16dd\JJ	.	.	.
=14	=14	=14	=14	=14	=14	=14	=14	=14	=14	=14	=14	=14	=14
4A\	4	.	8b\L	.	8dd\L	.	2.ryy	2.ryy	2.ryy	8dd\	-ge-	2.ryy	2.ryy
.	.	.	16a\L	.	16cc#\L	.	.	.	.	16cc#\LL	-ni-	.	.
.	.	.	16b\JJ	.	16dd\JJ	.	.	.	.	16dd\JJ	.	.	.
4AA/	3	.	16a/LL	.	16cc#\LL	.	.	.	.	8cc#\	-es	.	.
.	.	.	16g#/	.	16b\	.	.	.	.	.	.	.	.
.	.	.	16a/	.	16cc#\	.	.	.	.	4r	.	.	.
.	.	.	16b/JJ	.	16dd\JJ	.	.	.	.	.	.	.	.
8r	.	.	8cc#\L	.	16ee\LL	.	.	.	.	.	.	.	.
.	.	.	.	.	16ff#\	.	.	.	.	.	.	.	.
(8A\	.	.	8cc#\J	.	16gg#\	.	.	.	.	8ee\	ti-	.	.
.	.	.	.	.	16aa\JJ	.	.	.	.	.	.	.	.
!	!	!	!	!	!	!	!	!	!	!LO:LB:g=original	!	!	!
=15	=15	=15	=15	=15	=15	=15	=15	=15	=15	=15	=15	=15	=15
8D\L)	6	.	16cc#\LL	.	16ee\LL	.	2.ryy	2.ryy	2.ryy	16ee\LL	-men-	2.ryy	2.ryy
.	.	.	16b\	.	16dd\	.	.	.	.	16dd\	.	.	.
8D\	_	.	16a\	.	16cc#\	.	.	.	.	16cc#\	.	.	.
.	.	.	16b\JJ	.	16dd\JJ	.	.	.	.	16dd\JJ	.	.	.
8D\	.	.	4b\	.	4dd\	.	.	.	.	4dd\	-ti-	.	.
8D\	.	.	.	.	.	.	.	.	.	.	.	.	.
8D#X\	5	.	4a/	.	4cc#\	.	.	.	.	4cc#\	-bus	.	.
8D#\J	.	.	.	.	.	.	.	.	.	.	.	.	.
!	!	!	!LO:LB:g=original	!	!	!	!	!	!	!	!	!	!
=16	=16	=16	=16	=16	=16	=16	=16	=16	=16	=16	=16	=16	=16
8E\L	4	.	8a/L	.	8cc#\L	.	2.ryy	2.ryy	2.ryy	8cc#\L	e-	2.ryy	2.ryy
16E\L	_	.	16g#/L	.	16b\L	.	.	.	.	16b\L	.	.	.
16D\JJ	.	.	16a/JJ	.	16cc#\JJ	.	.	.	.	16cc#\JJ	.	.	.
!LO:LB:g=original	!	!	!	!	!	!	!	!	!	!	!	!	!
8E\L	3	.	4g#/	.	4b\	.	.	.	.	4b\	-um	.	.
8e\	.	.	.	.	.	.	.	.	.	.	.	.	.
8B\	.	.	4r	.	4r	.	.	.	.	4r	.	.	.
8G#\J	.	.	.	.	.	.	.	.	.	.	.	.	.
!	!	!	!	!	!	!	!	!	!	!LO:PB:g=original	!	!	!
=17	=17	=17	=17	=17	=17	=17	=17	=17	=17	=17	=17	=17	=17
*	*	*	*	*	*tremolo	*	*	*	*	*	*	*	*
8E\L	.	.	8B/L	.	8g#/L	.	2.ryy	2.ryy	2.ryy	2b\	fe-	2.ryy	2.ryy
8E\	.	.	8B/	.	8g#/	.	.	.	.	.	.	.	.
8E\	.	.	8B/	.	8g#/	.	.	.	.	.	.	.	.
8E\	.	.	8B/	.	8g#/	.	.	.	.	.	.	.	.
8E\	.	.	8B/	.	8g#/	.	.	.	.	16g#\LL	-cit	.	.
.	.	.	.	.	.	.	.	.	.	16a\JJ	.	.	.
8E\J	.	.	8B/J	.	8g#/J	.	.	.	.	16a\LL	po-	.	.
.	.	.	.	.	.	.	.	.	.	16b\JJ	.	.	.
=18	=18	=18	=18	=18	=18	=18	=18	=18	=18	=18	=18	=18	=18
*2\right	*	*	*	*	*	*	*	*	*	*	*	*	*
*tremolo	*	*	*tremolo	*	*	*	*	*	*	*	*	*	*
8E\L	.	.	8B/L	.	8g#/L	.	2.ryy	2.ryy	2.ryy	8.b\	-ten-	2.ryy	2.ryy
8E\	.	.	8B/	.	8g#/	.	.	.	.	.	.	.	.
.	.	.	.	.	.	.	.	.	.	16g#\	-ti-	.	.
8E\	.	.	8B/	.	8g#/	.	.	.	.	4b\	-am	.	.
8E\	.	.	8B/	.	8g#/	.	.	.	.	.	.	.	.
8E\	.	.	8B/	.	8g#/	.	.	.	.	8r	.	.	.
8E\J	.	.	8B/J	.	8g#/J	.	.	.	.	8b\	in	.	.
*	*	*	*	*	*Xtremolo	*	*	*	*	*	*	*	*
!	!	!	!	!	!LO:LB:g=original	!	!	!	!	!	!	!	!
=19	=19	=19	=19	=19	=19	=19	=19	=19	=19	=19	=19	=19	=19
8E\L	6 4	.	8c#/L	.	8a/L	.	2.ryy	2.ryy	2.ryy	8cc#\L	bra-	2.ryy	2.ryy
8E\	.	.	8c#/	.	8a/	.	.	.	.	8a\J	.	.	.
8E\	.	.	8c#/	.	8a/	.	.	.	.	4.ee\	-chi-	.	.
8E\	.	.	8c#/	.	8a/	.	.	.	.	.	.	.	.
8E\	.	.	8c#/	.	8a/	.	.	.	.	.	.	.	.
8E\J	.	.	8c#/J	.	8a/J	.	.	.	.	8cc#\	-o	.	.
*Xtremolo	*	*	*Xtremolo	*	*	*	*	*	*	*	*	*	*
=20	=20	=20	=20	=20	=20	=20	=20	=20	=20	=20	=20	=20	=20
!LO:TX:a:t=P:problem=mixed beam	!	!	!	!	!	!	!	!	!	!	!	!	!
8E\L	_ _	.	8c#/L	.	8a/L	.	2.ryy	2.ryy	2.ryy	8cc#\L	su-	2.ryy	2.ryy
8E\	.	.	16B/L	.	16g#/L	.	.	.	.	16b\L	.	.	.
.	.	.	16c#/JJ	.	16a/JJ	.	.	.	.	16cc#\JJ	.	.	.
8EE/	5 3	.	8B/L	.	16g#/LL	.	.	.	.	4a\	-o	.	.
.	.	.	.	.	16f#/	.	.	.	.	.	.	.	.
8EE/	.	.	16e/L	.	16g#/	.	.	.	.	.	.	.	.
.	.	.	16f#/JJ	.	16a/JJ	.	.	.	.	.	.	.	.
8E\	.	.	8g#/L	.	8b/L	.	.	.	.	8r	.	.	.
8E\J	.	.	8e/J	.	16a/L	.	.	.	.	8b\	dis-	.	.
.	.	.	.	.	16g#/JJ	.	.	.	.	.	.	.	.
!	!	!	!	!	!	!	!	!	!	!LO:LB:g=original	!	!	!
=21	=21	=21	=21	=21	=21	=21	=21	=21	=21	=21	=21	=21	=21
*tremolo	*	*	*	*	*	*	*	*	*	*	*	*	*
8BB/L	#	.	4d#X/	.	4f#/	.	2.ryy	2.ryy	2.ryy	16b\LL	-per-	2.ryy	2.ryy
.	.	.	.	.	.	.	.	.	.	16a\	.	.	.
8BB/	.	.	.	.	.	.	.	.	.	16g#\	.	.	.
.	.	.	.	.	.	.	.	.	.	16a\JJ	.	.	.
8BB/	.	.	8r	.	8r	.	.	.	.	4a\	-ſit	.	.
8BB/	.	.	16d#/LL	.	16f#/LL	.	.	.	.	.	.	.	.
.	.	.	16e/JJ	.	16g#/JJ	.	.	.	.	.	.	.	.
!	!	!	!LO:LB:g=original	!	!	!	!	!	!	!	!	!	!
8BB/	.	.	8f#/L	.	8a/L	.	.	.	.	8r	.	.	.
8BB/J	.	.	8f#/J	.	8a/J	.	.	.	.	8a\	su-	.	.
=22	=22	=22	=22	=22	=22	=22	=22	=22	=22	=22	=22	=22	=22
8E\L	.	.	4e/	.	4g#/	.	2.ryy	2.ryy	2.ryy	16a\LL	-per-	2.ryy	2.ryy
.	.	.	.	.	.	.	.	.	.	16g#\	.	.	.
8E\	.	.	.	.	.	.	.	.	.	16f#\	.	.	.
.	.	.	.	.	.	.	.	.	.	16g#\JJ	.	.	.
8E\	.	.	8r	.	8r	.	.	.	.	4g#\	-bos	.	.
8E\	.	.	16e/LL	.	16g#/LL	.	.	.	.	.	.	.	.
.	.	.	16f#/JJ	.	16a/JJ	.	.	.	.	.	.	.	.
8E\	.	.	8g#/L	.	8b/L	.	.	.	.	8r	.	.	.
8E\J	.	.	8g#/J	.	8b/J	.	.	.	.	[8b\	men-	.	.
*Xtremolo	*	*	*	*	*	*	*	*	*	*	*	*	*
=23	=23	=23	=23	=23	=23	=23	=23	=23	=23	=23	=23	=23	=23
8A\L	6	.	16g#/LL	.	16b/LL	.	2.ryy	2.ryy	2.ryy	16b\LL]	.	2.ryy	2.ryy
.	_	.	16f#/	.	16a/	.	.	.	.	16a\JJ	.	.	.
8A\	.	.	16a/	.	16cc#/	.	.	.	.	16cc#\LL	-te	.	.
.	.	.	16g#/JJ	.	16b/JJ	.	.	.	.	16b\JJ	.	.	.
!	!	!	!	!	!LO:LB:g=original	!	!	!	!	!	!	!	!
8A\	.	.	4f#/	.	4a/	.	.	.	.	4a\	cor-	.	.
8A\	.	.	.	.	.	.	.	.	.	.	.	.	.
8A#X\	5	.	4e/	.	4g#/	.	.	.	.	4g#\	-dis	.	.
8A#\J	.	.	.	.	.	.	.	.	.	.	.	.	.
=24	=24	=24	=24	=24	=24	=24	=24	=24	=24	=24	=24	=24	=24
!LO:TX:a:t=P:problem=mixed beam	!	!	!	!	!	!	!	!	!	!	!	!	!
8B\L	4	.	8e/L	.	8g#/L	.	2.ryy	2.ryy	2.ryy	8g#\L	su-	2.ryy	2.ryy
8B\	.	.	16d#X/L	.	16f#/L	.	.	.	.	16f#\L	.	.	.
.	.	.	16e/JJ	.	16g#/JJ	.	.	.	.	16g#\JJ	.	.	.
8BB/	#	.	16d#/LL	.	16f#/LL	.	.	.	.	4f#/	-i	.	.
.	.	.	16c#/	.	16e/	.	.	.	.	.	.	.	.
8BB/	.	.	16d#/	.	16f#/	.	.	.	.	.	.	.	.
.	.	.	16e/JJ	.	16g#/JJ	.	.	.	.	.	.	.	.
.	.	.	8qg#/	.	.	.	.	.	.	.	.	.	.
!	!	!	!	!	!	!	!	!	!	!LO:LB:g=original	!	!	!
8BB/	_	.	8f#/L	.	8a/L	.	.	.	.	8r	.	.	.
8BB/J	.	.	16e/L	.	16g#/L	.	.	.	.	8b\	de	.	.
.	x	.	16d#/JJ	.	16f#/JJ	.	.	.	.	.	.	.	.
=25	=25	=25	=25	=25	=25	=25	=25	=25	=25	=25	=25	=25	=25
*tremolo	*	*	*	*	*	*	*	*	*	*	*	*	*
8E\L	.	.	16e/LL	.	16g#/LL	.	2.ryy	2.ryy	2.ryy	4.b\	pos-	2.ryy	2.ryy
.	.	.	16d/	.	16f#/	.	.	.	.	.	.	.	.
8E\	.	.	16e/	.	16g#/	.	.	.	.	.	.	.	.
.	.	.	16f#/JJ	.	16a/JJ	.	.	.	.	.	.	.	.
8E\	.	.	4g#/	.	4b/	.	.	.	.	.	.	.	.
8E\	.	.	.	.	.	.	.	.	.	16a\LL	-su-	.	.
.	.	.	.	.	.	.	.	.	.	16b\JJ	.	.	.
!	!	!	!LO:LB:g=original	!	!	!	!	!	!	!	!	!	!
8E\	.	.	8r	.	8r	.	.	.	.	16cc#\LL	-it	.	.
.	.	.	.	.	.	.	.	.	.	16b\JJ	.	.	.
8E\J	.	.	8e/	.	8g#/	.	.	.	.	16a\LL	po-	.	.
.	.	.	.	.	.	.	.	.	.	16g#\JJ	.	.	.
=26	=26	=26	=26	=26	=26	=26	=26	=26	=26	=26	=26	=26	=26
8BB/L	#	.	4d#X/	.	4f#/	.	2.ryy	2.ryy	2.ryy	8g#/L	-ten-	2.ryy	2.ryy
8BB/	.	.	.	.	.	.	.	.	.	8f#/J	.	.	.
8BB/	.	.	16d#/LL	.	16f#/LL	.	.	.	.	4f#/	-tes	.	.
.	.	.	16c#/	.	16e/	.	.	.	.	.	.	.	.
8BB/	.	.	16d#/	.	16f#/	.	.	.	.	.	.	.	.
.	.	.	16e/JJ	.	16g#/JJ	.	.	.	.	.	.	.	.
8BB/	.	.	8f#/L	.	8a/L	.	.	.	.	8r	.	.	.
8BB/J	.	.	16e/L	.	16g#/L	.	.	.	.	8b\	po-	.	.
.	.	.	16d#/JJ	.	16f#/JJ	.	.	.	.	.	.	.	.
=27	=27	=27	=27	=27	=27	=27	=27	=27	=27	=27	=27	=27	=27
8E\L	.	.	16e/LL	.	16g#/LL	.	2.ryy	2.ryy	2.ryy	(4.b\	-ten-	2.ryy	2.ryy
.	.	.	16d/	.	16f#/	.	.	.	.	.	.	.	.
8E\	.	.	16e/	.	16g#/	.	.	.	.	.	.	.	.
.	.	.	16f#/JJ	.	16a/JJ	.	.	.	.	.	.	.	.
8E\	.	.	4g#/	.	4b/	.	.	.	.	.	.	.	.
8E\	.	.	.	.	.	.	.	.	.	16a\LL)	.	.	.
.	.	.	.	.	.	.	.	.	.	16b\JJ	.	.	.
!	!	!	!	!	!LO:LB:g=original	!	!	!	!	!	!	!	!
8E\	.	.	8r	.	8r	.	.	.	.	16cc#\LL	-tes	.	.
.	.	.	.	.	.	.	.	.	.	16b\JJ	.	.	.
8E\J	.	.	8e/	.	8g#/	.	.	.	.	16a\LL	de	.	.
.	.	.	.	.	.	.	.	.	.	16g#\JJ	.	.	.
!	!	!	!	!	!	!	!	!	!	!LO:LB:g=original	!	!	!
=28	=28	=28	=28	=28	=28	=28	=28	=28	=28	=28	=28	=28	=28
8BB/L	#	.	4d#X/	.	4f#/	.	2.ryy	2.ryy	2.ryy	8g#/L	se-	2.ryy	2.ryy
8BB/	.	.	.	.	.	.	.	.	.	8f#/J	.	.	.
8BB/	.	.	16d#/LL	.	16f#/LL	.	.	.	.	4f#/	-de	.	.
.	.	.	16c#/	.	16e/	.	.	.	.	.	.	.	.
8BB/	.	.	16d#/	.	16f#/	.	.	.	.	.	.	.	.
.	.	.	16e/JJ	.	16g#/JJ	.	.	.	.	.	.	.	.
.	.	.	8qg#/	.	.	.	.	.	.	.	.	.	.
8BB/	.	.	8f#/L	.	8a/L	.	.	.	.	8r	.	.	.
8BB/J	.	.	16e/L	.	16g#/L	.	.	.	.	8f#/	et	.	.
.	.	.	16d#/JJ	.	16f#/JJ	.	.	.	.	.	.	.	.
*Xtremolo	*	*	*	*	*	*	*	*	*	*	*	*	*
=29	=29	=29	=29	=29	=29	=29	=29	=29	=29	=29	=29	=29	=29
4E\	.	.	4B/	.	16g#/LL	.	2.ryy	2.ryy	2.ryy	16g#/LL	ex-	2.ryy	2.ryy
.	.	.	.	.	16e/	.	.	.	.	16e/	.	.	.
.	.	.	.	.	16f#/	.	.	.	.	16f#/	.	.	.
.	.	.	.	.	16g#/JJ	.	.	.	.	16g#/JJ	.	.	.
4E\	.	.	4B/	.	16a\LL	.	.	.	.	16a\LL	.	.	.
.	.	.	.	.	16b\	.	.	.	.	16b\	.	.	.
.	.	.	.	.	16cc#\	.	.	.	.	16cc#\	.	.	.
.	.	.	.	.	16dd#X\JJ	.	.	.	.	16dd#X\JJ	.	.	.
!	!	!	!LO:TX:b:t=Verte	!	!	!	!	!	!	!	!	!	!
4r	.	.	4r	.	16ee\LL	.	.	.	.	16ee\LL	.	.	.
.	.	.	.	.	16dd#\	.	.	.	.	16dd#\JJ	.	.	.
.	.	.	.	.	16cc#\	.	.	.	.	16cc#\LL	-al-	.	.
.	.	.	.	.	16b\JJ	.	.	.	.	16b\JJ	.	.	.
!LO:LB:g=original	!	!	!LO:PB:g=original	!	!	!	!	!	!	!	!	!	!
=30	=30	=30	=30	=30	=30	=30	=30	=30	=30	=30	=30	=30	=30
4E\	.	.	4B/	.	16cc#/LL	.	2.ryy	2.ryy	2.ryy	16cc#\LL	-ta-	2.ryy	2.ryy
.	.	.	.	.	16b/	.	.	.	.	16b\	.	.	.
.	.	.	.	.	16a/	.	.	.	.	16a\	.	.	.
.	.	.	.	.	16g#/JJ	.	.	.	.	16g#\JJ	.	.	.
4E\	.	.	4B/	.	16cc#/LL	.	.	.	.	16cc#\LL	.	.	.
.	.	.	.	.	16b/	.	.	.	.	16b\	.	.	.
.	.	.	.	.	16a/	.	.	.	.	16a\	.	.	.
.	.	.	.	.	16g#/JJ	.	.	.	.	16g#\JJ	.	.	.
4G#\	6	.	4B/	.	16f#/LL	.	.	.	.	16f#/LL	.	.	.
.	.	.	.	.	16e/	.	.	.	.	16e/	.	.	.
.	.	.	.	.	16d#X/	.	.	.	.	16d#X/	.	.	.
.	.	.	.	.	16e/JJ	.	.	.	.	16e/JJ	.	.	.
!	!	!	!	!	!LO:LB:g=original	!	!	!	!	!LO:LB:g=original	!	!	!
=31	=31	=31	=31	=31	=31	=31	=31	=31	=31	=31	=31	=31	=31
4A\	6	.	8c#/L	.	16f#/LL	.	2.ryy	2.ryy	2.ryy	16f#/LL	.	2.ryy	2.ryy
.	.	.	.	.	16a/JJ	.	.	.	.	16a/JJ	.	.	.
.	.	.	8a/J	.	16cc#\LL	.	.	.	.	16cc#\LL	-vit	.	.
.	.	.	.	.	16ff#\JJ	.	.	.	.	16ff#\JJ	.	.	.
4B\	4	.	4g#/	.	4ee\	.	.	.	.	4ee\	hu-	.	.
4BB/	#	.	4f#/	.	4dd#X\	.	.	.	.	4dd#X\	-mi-	.	.
=32	=32	=32	=32	=32	=32	=32	=32	=32	=32	=32	=32	=32	=32
!	!	!LO:DY:rj	!	!LO:DY:rj:a:t=for	!	!LO:DY:rj:a:t=f&colon;	!	!	!	!	!	!	!
8.E\L	.	fz	8.g#/L	f	8ee\L	f	2.ryy	2.ryy	2.ryy	4ee\	-les	2.ryy	2.ryy
.	.	.	.	.	16gg#\L	.	.	.	.	.	.	.	.
16F#\Jk	.	.	16a/Jk	.	16aa\JJ	.	.	.	.	.	.	.	.
8G#\L	.	.	8b/L	.	8bb\L	.	.	.	.	4r	.	.	.
8G#\	.	.	8b/J	.	8bb\J	.	.	.	.	.	.	.	.
8F#\	.	.	16b/LL	.	16bb\LL	.	.	.	.	4r	.	.	.
.	.	.	16a/	.	16aa\	.	.	.	.	.	.	.	.
8E\J	.	.	16a/	.	16aa\	.	.	.	.	.	.	.	.
.	.	.	16g#/JJ	.	16gg#\JJ	.	.	.	.	.	.	.	.
=33	=33	=33	=33	=33	=33	=33	=33	=33	=33	=33	=33	=33	=33
!	!	!	!	!	!	!	!	!	!	!LO:TX:a:t=7	!	!	!
8D#X\L	.	.	16g#/LL	.	16gg#\LL	.	2.ryy	2.ryy	2.ryy	0.r	.	2.ryy	2.ryy
.	.	.	16f#/	.	16ff#\	.	.	.	.	.	.	.	.
8E\	.	.	16f#/	.	16ff#\	.	.	.	.	.	.	.	.
.	.	.	16g#/JJ	.	16gg#\JJ	.	.	.	.	.	.	.	.
8F#\	6	.	16g#/LL	.	16gg#\LL	.	.	.	.	.	.	.	.
.	.	.	16a/	.	16aa\	.	.	.	.	.	.	.	.
8D#\	.	.	16a#X/	.	16aa#X\	.	.	.	.	.	.	.	.
.	.	.	16b/JJ	.	16bb\JJ	.	.	.	.	.	.	.	.
8E\	.	.	16an/LL	.	16aan\LL	.	.	.	.	.	.	.	.
.	.	.	16g#/	.	16gg#\	.	.	.	.	.	.	.	.
8G#\J	6	.	16f#/	.	16ff#\	.	.	.	.	.	.	.	.
.	.	.	16e/JJ	.	16ee\JJ	.	.	.	.	.	.	.	.
!	!	!	!LO:LB:g=original	!	!	!	!	!	!	!	!	!	!
=34	=34	=34	=34	=34	=34	=34	=34	=34	=34	=34	=34	=34	=34
8A\L	6	.	8cc#\L	.	16ee#X\LL	.	2.ryy	2.ryy	2.ryy	.	.	2.ryy	2.ryy
.	.	.	.	.	16ff#\	.	.	.	.	.	.	.	.
8A\	_	.	8cc#\	.	16ee#\	.	.	.	.	.	.	.	.
.	.	.	.	.	16ff#\JJ	.	.	.	.	.	.	.	.
8A\	.	.	8cc#\	.	16ee#\LL	.	.	.	.	.	.	.	.
.	.	.	.	.	16ff#\	.	.	.	.	.	.	.	.
8A\	.	.	8cc#\	.	16gg#\	.	.	.	.	.	.	.	.
.	.	.	.	.	16ff#\JJ	.	.	.	.	.	.	.	.
!	!	!	!	!	!LO:LB:g=original	!	!	!	!	!	!	!	!
8A#X\	5	.	8cc#\	.	16aa\LL	.	.	.	.	.	.	.	.
.	.	.	.	.	16gg#\	.	.	.	.	.	.	.	.
8A#\J	_	.	8cc#\J	.	16ff#\	.	.	.	.	.	.	.	.
.	.	.	.	.	16een\JJ	.	.	.	.	.	.	.	.
!LO:LB:g=original	!	!	!	!	!	!	!	!	!	!	!	!	!
=35	=35	=35	=35	=35	=35	=35	=35	=35	=35	=35	=35	=35	=35
4B\	4	.	8g#/L	.	8ee\L	.	2.ryy	2.ryy	2.ryy	.	.	2.ryy	2.ryy
.	.	.	16f#/L	.	16dd#X\L	.	.	.	.	.	.	.	.
.	.	.	16g#/JJ	.	16ee\JJ	.	.	.	.	.	.	.	.
4BB/	#	.	8f#/L	.	16dd#\LL	.	.	.	.	.	.	.	.
.	.	.	.	.	16b\	.	.	.	.	.	.	.	.
.	.	.	8f#/J	.	16cc#\	.	.	.	.	.	.	.	.
.	.	.	.	.	16dd#\JJ	.	.	.	.	.	.	.	.
8r	.	.	16ee\LL	.	16ee\LL	.	.	.	.	.	.	.	.
.	.	.	16dd#X\	.	16dd#\	.	.	.	.	.	.	.	.
8B\	_	.	16ee\	.	16ee\	.	.	.	.	.	.	.	.
.	.	.	16ff#\JJ	.	16ff#\JJ	.	.	.	.	.	.	.	.
=36	=36	=36	=36	=36	=36	=36	=36	=36	=36	=36	=36	=36	=36
4E\	x	.	16gg#\LL	.	16gg#\LL	.	2.ryy	2.ryy	2.ryy	.	.	2.ryy	2.ryy
.	.	.	16bb\	.	16bb\	.	.	.	.	.	.	.	.
.	.	.	16aa\	.	16aa\	.	.	.	.	.	.	.	.
.	.	.	16gg#\JJ	.	16gg#\JJ	.	.	.	.	.	.	.	.
4G#\	6	.	16ff#\LL	.	16ff#\LL	.	.	.	.	.	.	.	.
.	.	.	16ee\	.	16ee\	.	.	.	.	.	.	.	.
.	.	.	16dd#X\	.	16dd#X\	.	.	.	.	.	.	.	.
.	.	.	16ee\JJ	.	16ee\JJ	.	.	.	.	.	.	.	.
4D#X\	6 5	.	8.ff#\L 8.b\	.	8.ff#\L 8.b\	.	.	.	.	.	.	.	.
.	.	.	32gg#\LL	.	32gg#\LL	.	.	.	.	.	.	.	.
.	.	.	32aa\JJJ	.	32aa\JJJ	.	.	.	.	.	.	.	.
=37	=37	=37	=37	=37	=37	=37	=37	=37	=37	=37	=37	=37	=37
4E\	.	.	16gg#\LL	.	16gg#\LL	.	2.ryy	2.ryy	2.ryy	1.r	.	2.ryy	2.ryy
.	.	.	16bb\	.	16bb\	.	.	.	.	.	.	.	.
.	.	.	16aa\	.	16aa\	.	.	.	.	.	.	.	.
.	.	.	16gg#\JJ	.	16gg#\JJ	.	.	.	.	.	.	.	.
4G#\	6	.	16ff#\LL	.	16ff#\LL	.	.	.	.	.	.	.	.
.	.	.	16ee\	.	16ee\	.	.	.	.	.	.	.	.
.	.	.	16dd#X\	.	16dd#X\	.	.	.	.	.	.	.	.
.	.	.	16ee\JJ	.	16ee\JJ	.	.	.	.	.	.	.	.
!	!	!	!LO:LB:g=original	!	!	!	!	!	!	!	!	!	!
4D#X\	6 5	.	8.ff#\L 8.b\	.	8.ff#\L 8.b\	.	.	.	.	.	.	.	.
.	.	.	32gg#\LL	.	32gg#\LL	.	.	.	.	.	.	.	.
.	.	.	32aa\JJJ	.	32aa\JJJ	.	.	.	.	.	.	.	.
!	!	!	!	!	!LO:LB:g=original	!	!	!	!	!	!	!	!
=38	=38	=38	=38	=38	=38	=38	=38	=38	=38	=38	=38	=38	=38
8E\L	.	.	16gg#\LL	.	16gg#\LL	.	2.ryy	2.ryy	2.ryy	.	.	2.ryy	2.ryy
.	.	.	16b\	.	16ee\	.	.	.	.	.	.	.	.
8A\	6	.	16cc#\	.	16aa\	.	.	.	.	.	.	.	.
.	.	.	16a\JJ	.	16ff#\JJ	.	.	.	.	.	.	.	.
!LO:TX:a:t=P:problem=mixed beam	!	!	!	!	!	!	!	!	!	!	!	!	!
8B\	4	.	4g#/	.	4ee\	.	.	.	.	.	.	.	.
8B\	.	.	.	.	.	.	.	.	.	.	.	.	.
8BB/	#	.	4f#/	.	4dd#X\	.	.	.	.	.	.	.	.
8BB/J	.	.	.	.	.	.	.	.	.	.	.	.	.
=39	=39	=39	=39	=39	=39	=39	=39	=39	=39	=39	=39	=39	=39
4E\	.	.	8g#/L	.	8ee\L	.	2.ryy	2.ryy	2.ryy	2.r	.	2.ryy	2.ryy
.	.	.	8b/J	.	8gg#\J	.	.	.	.	.	.	.	.
4EE/	.	.	4g#/	.	4ee\	.	.	.	.	.	.	.	.
!	!	!LO:DY:a:t=p&colon;	!	!	!	!	!	!	!	!	!	!	!
4r	.	p	4r	.	4r	.	.	.	.	.	.	.	.
=40	=40	=40	=40	=40	=40	=40	=40	=40	=40	=40	=40	=40	=40
!	!	!	!	!LO:DY:rj:a:t=p&colon;	!	!LO:DY:rj:a:t=p&colon;	!	!	!	!	!	!	!
8E\L	.	.	2g#/	p	2b\	p	2.ryy	2.ryy	2.ryy	2b\	e-	2.ryy	2.ryy
8E\	.	.	.	.	.	.	.	.	.	.	.	.	.
8E\	.	.	.	.	.	.	.	.	.	.	.	.	.
8E\	.	.	.	.	.	.	.	.	.	.	.	.	.
8E\	4 2	.	8a/L	.	8cc#\L	.	.	.	.	8cc#\	-su-	.	.
8E\J	_ _	.	8f#/J	.	8a\J	.	.	.	.	8a\	-ri-	.	.
!LO:LB:g=original	!	!	!	!	!	!	!	!	!	!	!	!	!
=41	=41	=41	=41	=41	=41	=41	=41	=41	=41	=41	=41	=41	=41
8E\L	x 3	.	4.e/	.	4.g#/	.	2.ryy	2.ryy	2.ryy	4.g#\	-en-	2.ryy	2.ryy
8E\	_	.	.	.	.	.	.	.	.	.	.	.	.
8E\	.	.	.	.	.	.	.	.	.	.	.	.	.
8E\	x	.	16d#X/LL	.	16f#/LL	.	.	.	.	16f#\LL	.	.	.
.	.	.	16e/JJ	.	16g#/JJ	.	.	.	.	16g#\JJ	.	.	.
8E\	4 2	.	8f#/L	.	8a/L	.	.	.	.	8a\	-tes	.	.
8E\J	_ _	.	16e/L	.	16g#/L	.	.	.	.	16g#\LL	im-	.	.
.	.	.	16f#/JJ	.	16a/JJ	.	.	.	.	16a\JJ	.	.	.
!	!	!	!	!	!	!	!	!	!	!LO:LB:g=original	!	!	!
=42	=42	=42	=42	=42	=42	=42	=42	=42	=42	=42	=42	=42	=42
8E\L	x 3	.	2g#/	.	2b\	.	2.ryy	2.ryy	2.ryy	2b\	-ple-	2.ryy	2.ryy
8E\	x _	.	.	.	.	.	.	.	.	.	.	.	.
8E\	.	.	.	.	.	.	.	.	.	.	.	.	.
8E\	.	.	.	.	.	.	.	.	.	.	.	.	.
8E\	4 2	.	8a/L	.	8cc#\L	.	.	.	.	8cc#\L	-vit	.	.
8E\J	_ _	.	8f#/J	.	8a\J	.	.	.	.	8a\J	.	.	.
!	!	!	!LO:LB:g=original	!	!	!	!	!	!	!	!	!	!
=43	=43	=43	=43	=43	=43	=43	=43	=43	=43	=43	=43	=43	=43
4E\	.	.	8f#/L	.	8a/L	.	2.ryy	2.ryy	2.ryy	8a\L	bo-	2.ryy	2.ryy
.	.	.	16e/L	.	16g#/L	.	.	.	.	16g#\L	.	.	.
.	.	.	16f#/JJ	.	16a/JJ	.	.	.	.	16a\JJ	.	.	.
4EE/	x 3	.	16e/LL	.	16g#/LL	.	.	.	.	4g#\	-nis	.	.
.	.	.	16d#X/	.	16f#/	.	.	.	.	.	.	.	.
.	.	.	16e/	.	16g#/	.	.	.	.	.	.	.	.
.	.	.	16f#/JJ	.	16a/JJ	.	.	.	.	.	.	.	.
!	!	!	!	!	!LO:LB:g=original	!	!	!	!	!	!	!	!
8r	.	.	8g#/L	.	8b/L	.	.	.	.	8b\	&	.	.
8E\	.	.	16f#/L	.	16a/L	.	.	.	.	16a\LL	di-	.	.
.	.	.	16e/JJ	.	16g#/JJ	.	.	.	.	16g#\JJ	.	.	.
=44	=44	=44	=44	=44	=44	=44	=44	=44	=44	=44	=44	=44	=44
4B\	4	.	8e/L	.	8g#/L	.	2.ryy	2.ryy	2.ryy	8g#\L	-vi-	2.ryy	2.ryy
.	.	.	16d#X/L	.	16f#/L	.	.	.	.	16f#\L	.	.	.
.	.	.	16e/JJ	.	16g#/JJ	.	.	.	.	16g#\JJ	.	.	.
4BB/	#	.	16d#/LL	.	16f#/LL	.	.	.	.	4f#/	-tes	.	.
.	.	.	16c#/	.	16e/	.	.	.	.	.	.	.	.
.	.	.	16d#/	.	16f#/	.	.	.	.	.	.	.	.
.	.	.	16e/JJ	.	16g#/JJ	.	.	.	.	.	.	.	.
*	*	*	*	*	*	*	*	*	*	*	*ij	*	*
8r	.	.	8f#/L	.	8a/L	.	.	.	.	8a\	&	.	.
8BB/	_	.	16g#/L	.	16b/L	.	.	.	.	16b\LL	di-	.	.
.	.	.	16f#/JJ	.	16a/JJ	.	.	.	.	16a\JJ	.	.	.
=45	=45	=45	=45	=45	=45	=45	=45	=45	=45	=45	=45	=45	=45
4E\	4	.	8f#/L	.	8a/L	.	2.ryy	2.ryy	2.ryy	8a\L	-vi-	2.ryy	2.ryy
.	.	.	16e/L	.	16g#/L	.	.	.	.	16g#\L	.	.	.
.	.	.	16f#/JJ	.	16a/JJ	.	.	.	.	16a\JJ	.	.	.
4EE/	#	.	16e/LL	.	16g#/LL	.	.	.	.	4g#\	-tes	.	.
*	*	*	*	*	*	*	*	*	*	*	*Xij	*	*
.	.	.	16d#X/	.	16f#/	.	.	.	.	.	.	.	.
.	.	.	16e/	.	16g#/	.	.	.	.	.	.	.	.
.	.	.	16f#/JJ	.	16a/JJ	.	.	.	.	.	.	.	.
8r	.	.	8g#/L	.	16b\LL	.	.	.	.	8r	.	.	.
.	.	.	.	.	16cc#\	.	.	.	.	.	.	.	.
8E\	.	.	8g#/J	.	16dd#X\	.	.	.	.	8ee\	di-	.	.
.	.	.	.	.	16ee\JJ	.	.	.	.	.	.	.	.
!LO:LB:g=original	!	!	!	!	!	!	!	!	!LO:LB;g=original	!	!	!	!
=46	=46	=46	=46	=46	=46	=46	=46	=46	=46	=46	=46	=46	=46
8A\L	6	.	8a/L	.	8ff#\L	.	2.ryy	2.ryy	2.ryy	4ff#\	-mi-	2.ryy	2.ryy
!LO:TX:a:t=P:problem=mixed beam	!	!	!	!	!	!	!	!	!	!	!	!	!
8A\	.	.	16cc#/L	.	16aa\L	.	.	.	.	.	.	.	.
.	.	.	16a/JJ	.	16ff#\JJ	.	.	.	.	.	.	.	.
8B\	4	.	4g#/	.	4ee\	.	.	.	.	4ee\	-ſit	.	.
8B\	.	.	.	.	.	.	.	.	.	.	.	.	.
8BB/	#	.	4f#/	.	4dd#X\	.	.	.	.	4dd#X\	in-	.	.
8BB/J	.	.	.	.	.	.	.	.	.	.	.	.	.
!	!	!	!LO:LB:g=original	!	!	!	!	!	!	!	!	!	!
=47	=47	=47	=47	=47	=47	=47	=47	=47	=47	=47	=47	=47	=47
8E\L	.	.	8g#/L	.	8ee\L	.	2.ryy	2.ryy	2.ryy	4ee\	-a-	2.ryy	2.ryy
16E\L	.	.	16g#/L	.	16b\L	.	.	.	.	.	.	.	.
16D#X\JJ	.	.	16a/JJ	.	16cc#\JJ	.	.	.	.	.	.	.	.
8E/L	.	.	8g#/L	.	8b\L	.	.	.	.	4ee\	-nes	.	.
16BB/L	.	.	8g#/	.	8b\J	.	.	.	.	.	.	.	.
16AA/JJ	.	.	.	.	.	.	.	.	.	.	.	.	.
!	!	!	!	!	!LO:LB:g=original	!	!	!	!	!	!	!	!
8EE/	.	.	8g#/J	.	8b\	.	.	.	.	8r	.	.	.
8r	.	.	8r	.	8r	.	.	.	.	8ee\	sus-	.	.
=48	=48	=48	=48	=48	=48	=48	=48	=48	=48	=48	=48	=48	=48
8r	.	.	8r	.	8r	.	2.ryy	2.ryy	2.ryy	4.cc#\	-ce-	2.ryy	2.ryy
8E\L	4# 2	.	8f#/L	.	8a#X/L	.	.	.	.	.	.	.	.
8E\	.	.	8f#/	.	8a#/	.	.	.	.	.	.	.	.
8E\	_ _	.	8f#/	.	8a#/	.	.	.	.	16b\LL	.	.	.
.	.	.	.	.	.	.	.	.	.	16cc#\JJ	.	.	.
8E\	.	.	8f#/	.	8a#/	.	.	.	.	16dd\LL	.	.	.
.	x	.	.	.	.	.	.	.	.	16cc#\JJ	.	.	.
8E\J	.	.	8f#/J	.	8a#/J	.	.	.	.	16b\LL	-pit	.	.
.	.	.	.	.	.	.	.	.	.	16a#X\JJ	.	.	.
=49	=49	=49	=49	=49	=49	=49	=49	=49	=49	=49	=49	=49	=49
8r	.	.	8r	.	8r	.	2.ryy	2.ryy	2.ryy	16a\LL	Is-	2.ryy	2.ryy
.	.	.	.	.	.	.	.	.	.	16b\JJ	.	.	.
8Dn\L	6	.	8f#/L	.	8b\L	.	.	.	.	16cc#\LL	-ra-	.	.
.	.	.	.	.	.	.	.	.	.	16b\JJ	.	.	.
8D\	_	.	8f#/	.	8b\	.	.	.	.	4b\	-el	.	.
8D\	.	.	8f#/	.	8b\	.	.	.	.	.	.	.	.
!	!	!	!	!	!	!	!	!	!	!LO:LB:g=original	!	!	!
8D\	.	.	8f#/	.	8b\	.	.	.	.	8r	.	.	.
8D\J	.	.	8f#/J	.	8b\J	.	.	.	.	8b\	pu-	.	.
!LO:LB:g=original	!	!	!	!	!	!	!	!	!	!	!	!	!
=50	=50	=50	=50	=50	=50	=50	=50	=50	=50	=50	=50	=50	=50
8r	.	.	8r	.	8r	.	2.ryy	2.ryy	2.ryy	4.b\	-e-	2.ryy	2.ryy
8D\L	4 2	.	8e/L	.	8g#/L	.	.	.	.	.	.	.	.
8D\	_ _	.	8e/	.	8g#/	.	.	.	.	.	.	.	.
8D\	.	.	8e/	.	8g#/	.	.	.	.	16an\LL	.	.	.
.	.	.	.	.	.	.	.	.	.	16b\JJ	.	.	.
8D\	.	.	8e/	.	8g#/	.	.	.	.	16cc#\LL	.	.	.
.	x	.	.	.	.	.	.	.	.	16b\JJ	.	.	.
8D\J	.	.	8e/J	.	8g#/J	.	.	.	.	16a\LL	-rum	.	.
.	.	.	.	.	.	.	.	.	.	16g#\JJ	.	.	.
=51	=51	=51	=51	=51	=51	=51	=51	=51	=51	=51	=51	=51	=51
8r	.	.	8r	.	8r	.	2.ryy	2.ryy	2.ryy	16g#\LL	u-	2.ryy	2.ryy
.	.	.	.	.	.	.	.	.	.	16a\	.	.	.
8C#/L	6	.	8e/L	.	8an/L	.	.	.	.	16b\	.	.	.
.	.	.	.	.	.	.	.	.	.	16a\JJ	.	.	.
8C#/	_	.	8e/	.	8a/	.	.	.	.	4a\	-um	.	.
8C#/	.	.	8e/	.	8a/	.	.	.	.	.	.	.	.
8C#/	.	.	8e/	.	8a/	.	.	.	.	8r	.	.	.
8C#/J	x	.	8e/J	.	8a/J	.	.	.	.	8a\	re-	.	.
!	!	!	!LO:LB:g=original	!	!LO:LB:g=original	!	!	!	!	!	!	!	!
=52	=52	=52	=52	=52	=52	=52	=52	=52	=52	=52	=52	=52	=52
8r	.	.	8r	.	8r	.	2.ryy	2.ryy	2.ryy	16cc#\LL	.	2.ryy	2.ryy
.	.	.	.	.	.	.	.	.	.	16b\	.	.	.
8G#\L	6 5	.	8e/L	.	8b\L	.	.	.	.	16a\	.	.	.
.	.	.	.	.	.	.	.	.	.	16b\JJ	.	.	.
8G#\	.	.	8e/	.	8b\	.	.	.	.	4.dd\	.	.	.
8G#\	_ _	.	8e/	.	8b\	.	.	.	.	.	.	.	.
8G#\	.	.	8e/	.	8b\	.	.	.	.	.	.	.	.
8G#\J	x	.	8e/J	.	8b\J	.	.	.	.	16b\LL	-cor-	.	.
.	.	.	.	.	.	.	.	.	.	16g\JJ	.	.	.
!	!	!	!	!	!	!	!	!	!	!LO:LB:g=original	!	!	!
=53	=53	=53	=53	=53	=53	=53	=53	=53	=53	=53	=53	=53	=53
8r	.	.	8r	.	8r	.	2.ryy	2.ryy	2.ryy	16b\LL	-da-	2.ryy	2.ryy
.	.	.	.	.	.	.	.	.	.	16a\	.	.	.
8A\L	.	.	8e/L	.	8cc#\L	.	.	.	.	16g#\	.	.	.
.	.	.	.	.	.	.	.	.	.	16a\JJ	.	.	.
8A\	.	.	8e/	.	8cc#\	.	.	.	.	4.a\	-tus	.	.
8A\	.	.	8e/	.	8cc#\	.	.	.	.	.	.	.	.
8A\	.	.	8e/	.	8cc#\	.	.	.	.	.	.	.	.
8A\J	.	.	8e/J	.	8cc#\J	.	.	.	.	16cc#\LL	mi-	.	.
.	.	.	.	.	.	.	.	.	.	16ee\JJ	.	.	.
=54	=54	=54	=54	=54	=54	=54	=54	=54	=54	=54	=54	=54	=54
!LO:TX:a:t=P:problem=mixed beam	!	!	!	!	!	!	!	!	!	!	!	!	!
8D\L	6	.	4f#/	.	8b\L	.	2.ryy	2.ryy	2.ryy	8dd\	-ſe-	2.ryy	2.ryy
8D\	_	.	.	.	16dd\L	.	.	.	.	16ff#\LL	-ri	.	.
.	.	.	.	.	16b\JJ	.	.	.	.	16dd\JJ	.	.	.
8E\	4	.	4e/	.	4a/	.	.	.	.	4cc#\	cor-	.	.
8E\	#	.	.	.	.	.	.	.	.	.	.	.	.
8EE/	_	.	4e/	.	4g#/	.	.	.	.	8b\	-di-	.	.
8EE/J	.	.	.	.	.	.	.	.	.	8b\	-ae	.	.
!LO:LB:g=original	!	!	!	!	!	!	!	!	!	!	!	!	!
=55	=55	=55	=55	=55	=55	=55	=55	=55	=55	=55	=55	=55	=55
!LO:TX:a:t=P:problem=mixed beam	!	!	!	!	!	!	!	!	!	!	!	!	!
8AA/L	x	.	8c#/L	.	8a/L	.	2.ryy	2.ryy	2.ryy	4cc#\	su-	2.ryy	2.ryy
16A\L	.	.	8e/J	.	8cc#/J	.	.	.	.	.	.	.	.
16G#\JJ	.	.	.	.	.	.	.	.	.	.	.	.	.
8A\L	.	.	4c#/	.	4a/	.	.	.	.	4cc#\	-ae	.	.
8A\	.	.	.	.	.	.	.	.	.	.	.	.	.
8E\	.	.	4r	.	4r	.	.	.	.	4r	.	.	.
8C#\J	.	.	.	.	.	.	.	.	.	.	.	.	.
!	!	!	!	!	!LO:PB:g=original	!	!	!	!	!	!	!	!
=56	=56	=56	=56	=56	=56	=56	=56	=56	=56	=56	=56	=56	=56
!LO:TX:a:t=P:problem=mixed beam	!	!	!	!	!	!	!	!	!	!	!	!	!
8AA/L	.	.	8e/L	.	8cc#\L	.	2.ryy	2.ryy	2.ryy	2ee\	si-	2.ryy	2.ryy
8A\	.	.	8e/	.	8cc#\	.	.	.	.	.	.	.	.
8A\	.	.	8e/	.	8cc#\	.	.	.	.	.	.	.	.
8A\	.	.	8e/	.	8cc#\	.	.	.	.	.	.	.	.
8A\	.	.	8e/	.	8cc#\	.	.	.	.	16cc#\LL	-cut	.	.
.	.	.	.	.	.	.	.	.	.	16dd\JJ	.	.	.
8A\J	.	.	8e/J	.	8cc#\J	.	.	.	.	16ee\LL	lo-	.	.
.	.	.	.	.	.	.	.	.	.	16ff#\JJ	.	.	.
!	!	!	!	!	!	!	!	!	!	!LO:LB:g=original	!	!	!
=57	=57	=57	=57	=57	=57	=57	=57	=57	=57	=57	=57	=57	=57
*tremolo	*	*	*tremolo	*	*tremolo	*	*	*	*	*	*	*	*
8A\L	.	.	8e/L	.	8cc#\L	.	2.ryy	2.ryy	2.ryy	8.ee\	-cu-	2.ryy	2.ryy
8A\	.	.	8e/	.	8cc#\	.	.	.	.	.	.	.	.
.	.	.	.	.	.	.	.	.	.	16cc#\	-tus	.	.
8A\	.	.	8e/	.	8cc#\	.	.	.	.	4ee\	eſt	.	.
8A\	.	.	8e/	.	8cc#\	.	.	.	.	.	.	.	.
8A\	.	.	8e/	.	8cc#\	.	.	.	.	8r	.	.	.
8A\J	.	.	8e/J	.	8cc#\J	.	.	.	.	8ee\	ad	.	.
*	*	*	*Xtremolo	*	*	*	*	*	*	*	*	*	*
!	!	!	!LO:LB:g=original	!	!	!	!	!	!	!	!	!	!
=58	=58	=58	=58	=58	=58	=58	=58	=58	=58	=58	=58	=58	=58
8A\L	6 4	.	8f#/L	.	8dd\L	.	2.ryy	2.ryy	2.ryy	8ff#\L	pat-	2.ryy	2.ryy
8A\	.	.	8f#/	.	8dd\	.	.	.	.	8dd\J	.	.	.
8A\	.	.	8f#/	.	8dd\	.	.	.	.	4.aa\	.	.	.
8A\	.	.	8f#/	.	8dd\	.	.	.	.	.	.	.	.
8A\	.	.	8f#/	.	8dd\	.	.	.	.	.	.	.	.
8A\J	.	.	8f#/J	.	8dd\J	.	.	.	.	8ff#\	-res	.	.
*Xtremolo	*	*	*	*	*Xtremolo	*	*	*	*	*	*	*	*
=59	=59	=59	=59	=59	=59	=59	=59	=59	=59	=59	=59	=59	=59
!LO:TX:a:t=P:problem=mixed beam	!	!	!	!	!	!	!	!	!	!	!	!	!
8A\L	_ _	.	8f#/L	.	8dd\L	.	2.ryy	2.ryy	2.ryy	8ff#\L	noſ-	2.ryy	2.ryy
8A\	.	.	16e/L	.	16cc#\L	.	.	.	.	16ee\L	.	.	.
.	.	.	16f#/JJ	.	16dd\JJ	.	.	.	.	16ff#\JJ	.	.	.
8AA/	5 3	.	8e/L	.	16cc#\LL	.	.	.	.	4ee\	-tros	.	.
.	.	.	.	.	16b\	.	.	.	.	.	.	.	.
8AA/	.	.	16a/L	.	16cc#\	.	.	.	.	.	.	.	.
.	.	.	16b/JJ	.	16dd\JJ	.	.	.	.	.	.	.	.
8AA/	.	.	8cc#\L	.	8ee\L	.	.	.	.	8r	.	.	.
8AA/J	.	.	16b\L	.	16dd\L	.	.	.	.	8ee\	ad	.	.
.	.	.	16a\JJ	.	16cc#\JJ	.	.	.	.	.	.	.	.
=60	=60	=60	=60	=60	=60	=60	=60	=60	=60	=60	=60	=60	=60
*tremolo	*	*	*	*	*	*	*	*	*	*	*	*	*
8E\L	.	.	4g#/	.	4b\	.	2.ryy	2.ryy	2.ryy	16ee\LL	pat-	2.ryy	2.ryy
.	.	.	.	.	.	.	.	.	.	16dd\	.	.	.
8E\	.	.	.	.	.	.	.	.	.	16cc#\	.	.	.
.	.	.	.	.	.	.	.	.	.	16dd\JJ	.	.	.
8E\	.	.	8r	.	8r	.	.	.	.	4dd\	-res	.	.
8E\	.	.	16g#/LL	.	16b\LL	.	.	.	.	.	.	.	.
.	.	.	16a/JJ	.	16cc#\JJ	.	.	.	.	.	.	.	.
!	!	!	!	!	!	!	!	!	!	!LO:LB:g=original	!	!	!
8E\	.	.	8b/L	.	8dd\L	.	.	.	.	8r	.	.	.
8E\J	.	.	8b/J	.	8dd\J	.	.	.	.	8dd\	ad	.	.
!	!	!	!	!	!LO:LB:g=original	!	!	!	!	!	!	!	!
=61	=61	=61	=61	=61	=61	=61	=61	=61	=61	=61	=61	=61	=61
8A\L	.	.	4a/	.	4cc#\	.	2.ryy	2.ryy	2.ryy	16dd\LL	pat-	2.ryy	2.ryy
.	.	.	.	.	.	.	.	.	.	16cc#\	.	.	.
8A\	.	.	.	.	.	.	.	.	.	16b\	.	.	.
.	.	.	.	.	.	.	.	.	.	16cc#\JJ	.	.	.
8A\	.	.	8r	.	8r	.	.	.	.	4cc#\	-res	.	.
8A\	.	.	16a/LL	.	16cc#\LL	.	.	.	.	.	.	.	.
.	.	.	16b/JJ	.	16dd\JJ	.	.	.	.	.	.	.	.
8A\	.	.	8cc#\L	.	8ee\L	.	.	.	.	8r	.	.	.
*	*	*	*	*	*	*	*	*	*	*	*ij	*	*
8A\J	.	.	8cc#\J	.	8ee\J	.	.	.	.	8ee\	ad	.	.
*Xtremolo	*	*	*	*	*	*	*	*	*	*	*	*	*
!LO:LB:g=original	!	!	!LO:LB:g=original	!	!	!	!	!	!	!	!	!	!
=62	=62	=62	=62	=62	=62	=62	=62	=62	=62	=62	=62	=62	=62
8D\L	6	.	16cc#\LL	.	16ee\LL	.	2.ryy	2.ryy	2.ryy	16ee\LL	pat-	2.ryy	2.ryy
.	.	.	16b\	.	16dd\	.	.	.	.	16dd\JJ	.	.	.
8D\	_	.	16dd\	.	16ff#\	.	.	.	.	16ff#\LL	-res	.	.
*	*	*	*	*	*	*	*	*	*	*	*Xij	*	*
.	.	.	16cc#\JJ	.	16ee\JJ	.	.	.	.	16ee\JJ	.	.	.
8D\	.	.	4b\	.	4dd\	.	.	.	.	4dd\	noſ-	.	.
8D\	.	.	.	.	.	.	.	.	.	.	.	.	.
8D#X\	5	.	4a/	.	4cc#\	.	.	.	.	4cc#\	-tros	.	.
8D#\J	.	.	.	.	.	.	.	.	.	.	.	.	.
=63	=63	=63	=63	=63	=63	=63	=63	=63	=63	=63	=63	=63	=63
!LO:TX:a:t=P:problem=mixed beam	!	!	!	!	!	!	!	!	!	!	!	!	!
8E\L	4	.	8a/L	.	8cc#\L	.	2.ryy	2.ryy	2.ryy	8cc#\	ab-	2.ryy	2.ryy
8E\	3	.	16g#/L	.	16b\L	.	.	.	.	16b\LL	-ra-	.	.
.	.	.	16a/JJ	.	16cc#\JJ	.	.	.	.	16cc#\JJ	.	.	.
8EE/	.	.	16g#/LL	.	16b\LL	.	.	.	.	4b\	-ham	.	.
.	.	.	16f#/	.	16a\	.	.	.	.	.	.	.	.
8EE/	.	.	16g#/	.	16b\	.	.	.	.	.	.	.	.
.	.	.	16a/JJ	.	16cc#\JJ	.	.	.	.	.	.	.	.
8E\	.	.	8b/L	.	8dd\L	.	.	.	.	8r	.	.	.
8E\J	.	.	16a/L	.	16cc#\L	.	.	.	.	8ee\	&	.	.
.	.	.	16g#/JJ	.	16b\JJ	.	.	.	.	.	.	.	.
!	!	!	!	!	!	!	!	!	!	!LO:LB:g=original	!	!	!
=64	=64	=64	=64	=64	=64	=64	=64	=64	=64	=64	=64	=64	=64
*tremolo	*	*	*	*	*	*	*	*	*	*	*	*	*
8A\L	.	.	16a/LL	.	16cc#\LL	.	2.ryy	2.ryy	2.ryy	(4.ee\	Se-	2.ryy	2.ryy
.	.	.	16g#/	.	16b\	.	.	.	.	.	.	.	.
8A\	.	.	16a/	.	16cc#\	.	.	.	.	.	.	.	.
.	.	.	16b/JJ	.	16dd\JJ	.	.	.	.	.	.	.	.
8A\	.	.	4cc#\	.	4ee\	.	.	.	.	.	.	.	.
8A\	.	.	.	.	.	.	.	.	.	16dd\LL)	.	.	.
.	.	.	.	.	.	.	.	.	.	16ee\JJ	.	.	.
8A\	.	.	8r	.	8r	.	.	.	.	16ff#\LL	-mi-	.	.
.	.	.	.	.	.	.	.	.	.	16ee\JJ	.	.	.
8A\J	.	.	8a/	.	8cc#\	.	.	.	.	16dd\LL	-ni	.	.
.	.	.	.	.	.	.	.	.	.	16cc#\JJ	.	.	.
!	!	!	!	!	!LO:LB:g=original	!	!	!	!	!	!	!	!
=65	=65	=65	=65	=65	=65	=65	=65	=65	=65	=65	=65	=65	=65
8E\L	.	.	4g#/	.	4b\	.	2.ryy	2.ryy	2.ryy	8cc#\L	e-	2.ryy	2.ryy
8E\	.	.	.	.	.	.	.	.	.	8b\J	.	.	.
8E\	.	.	16g#/LL	.	16b\LL	.	.	.	.	4b\	-jus	.	.
.	.	.	16f#/	.	16a\	.	.	.	.	.	.	.	.
8E\	.	.	16g#/	.	16b\	.	.	.	.	.	.	.	.
.	.	.	16a/JJ	.	16cc#\JJ	.	.	.	.	.	.	.	.
!	!	!	!LO:LB:g=original	!	!	!	!	!	!	!	!	!	!
8E\	.	.	8b/L	.	8dd\L	.	.	.	.	8r	.	.	.
8E\J	.	.	16a/L	.	16cc#\L	.	.	.	.	8ee\	&	.	.
.	.	.	16g#/JJ	.	16b\JJ	.	.	.	.	.	.	.	.
=66	=66	=66	=66	=66	=66	=66	=66	=66	=66	=66	=66	=66	=66
8A\L	.	.	16a/LL	.	16cc#\LL	.	2.ryy	2.ryy	2.ryy	(4.ee\	Se-	2.ryy	2.ryy
.	.	.	16g#/	.	16b\	.	.	.	.	.	.	.	.
8A\	.	.	16a/	.	16cc#\	.	.	.	.	.	.	.	.
.	.	.	16b/JJ	.	16dd\JJ	.	.	.	.	.	.	.	.
8A\	.	.	4cc#\	.	4ee\	.	.	.	.	.	.	.	.
8A\	.	.	.	.	.	.	.	.	.	16dd\LL)	.	.	.
.	.	.	.	.	.	.	.	.	.	16ee\JJ	.	.	.
8A\	.	.	8r	.	8r	.	.	.	.	16ff#\LL	-mi-	.	.
.	.	.	.	.	.	.	.	.	.	16ee\JJ	.	.	.
8A\J	.	.	8a/	.	8cc#\	.	.	.	.	16dd\LL	-ni	.	.
.	.	.	.	.	.	.	.	.	.	16cc#\JJ	.	.	.
=67	=67	=67	=67	=67	=67	=67	=67	=67	=67	=67	=67	=67	=67
8E\L	.	.	4g#/	.	4b\	.	2.ryy	2.ryy	2.ryy	8cc#\L	e-	2.ryy	2.ryy
8E\	.	.	.	.	.	.	.	.	.	8b\J	.	.	.
8E\	.	.	16g#/LL	.	16b\LL	.	.	.	.	4b\	-jus	.	.
.	.	.	16f#/	.	16a\	.	.	.	.	.	.	.	.
8E\	.	.	16g#/	.	16b\	.	.	.	.	.	.	.	.
.	.	.	16a/JJ	.	16cc#\JJ	.	.	.	.	.	.	.	.
8E\	.	.	8b/L	.	8dd\L	.	.	.	.	8r	.	.	.
8E\J	.	.	16a/L	.	16cc#\L	.	.	.	.	8b\	e-	.	.
.	.	.	16g#/JJ	.	16b\JJ	.	.	.	.	.	.	.	.
*Xtremolo	*	*	*	*	*	*	*	*	*	*	*	*	*
!	!	!	!	!	!	!	!	!	!	!LO:LB:g=original	!	!	!
=68	=68	=68	=68	=68	=68	=68	=68	=68	=68	=68	=68	=68	=68
4A\	.	.	4e/	.	16cc#\LL	.	2.ryy	2.ryy	2.ryy	16cc#\LL	.	2.ryy	2.ryy
.	.	.	.	.	16a\	.	.	.	.	16a\	.	.	.
.	.	.	.	.	16b\	.	.	.	.	16b\	.	.	.
.	.	.	.	.	16cc#\JJ	.	.	.	.	16cc#\JJ	.	.	.
4A\	.	.	4e/	.	16dd\LL	.	.	.	.	16dd\LL	.	.	.
.	.	.	.	.	16ee\	.	.	.	.	16ee\	.	.	.
.	.	.	.	.	16ff#\	.	.	.	.	16ff#\	.	.	.
.	.	.	.	.	16gg#\JJ	.	.	.	.	16gg#\JJ	.	.	.
!	!	!	!	!	!LO:LB:g=original	!	!	!	!	!	!	!	!
4r	.	.	4r	.	16aa\LL	.	.	.	.	16aa\LL	.	.	.
.	.	.	.	.	16gg#\	.	.	.	.	16gg#\	.	.	.
.	.	.	.	.	16ff#\	.	.	.	.	16ff#\	.	.	.
.	.	.	.	.	16ee\JJ	.	.	.	.	16ee\JJ	.	.	.
!LO:LB:g=original	!	!	!	!	!	!	!	!	!	!	!	!	!
=69	=69	=69	=69	=69	=69	=69	=69	=69	=69	=69	=69	=69	=69
4A\	.	.	4e/	.	16ff#\LL	.	2.ryy	2.ryy	2.ryy	16ff#\LL	.	2.ryy	2.ryy
.	.	.	.	.	16ee\	.	.	.	.	16ee\	.	.	.
.	.	.	.	.	16dd\	.	.	.	.	16dd\	.	.	.
.	.	.	.	.	16cc#\JJ	.	.	.	.	16cc#\JJ	.	.	.
4AA/	.	.	4e/	.	16ff#\LL	.	.	.	.	16ff#\LL	.	.	.
.	.	.	.	.	16ee\	.	.	.	.	16ee\	.	.	.
.	.	.	.	.	16dd\	.	.	.	.	16dd\	.	.	.
.	.	.	.	.	16cc#\JJ	.	.	.	.	16cc#\JJ	.	.	.
4A\	.	.	4e/	.	16b/LL	.	.	.	.	16b\LL	.	.	.
.	.	.	.	.	16a/	.	.	.	.	16a\	.	.	.
.	.	.	.	.	16g#/	.	.	.	.	16g#\	.	.	.
.	.	.	.	.	16a/JJ	.	.	.	.	16a\JJ	.	.	.
!	!	!	!LO:LB:g=original	!	!	!	!	!	!	!	!	!	!
=70	=70	=70	=70	=70	=70	=70	=70	=70	=70	=70	=70	=70	=70
4d\	6	.	4d/	.	8b\L	.	2.ryy	2.ryy	2.ryy	8b\	-jus	2.ryy	2.ryy
.	.	.	.	.	16cc#\L	.	.	.	.	16dd\LL	in	.	.
.	.	.	.	.	16b\JJ	.	.	.	.	16b\JJ	.	.	.
4e\	4	.	4c#/	.	4a/	.	.	.	.	4a\	sae-	.	.
4E\	3	.	4B/	.	4g#/	.	.	.	.	4g#\	-cu-	.	.
=71	=71	=71	=71	=71	=71	=71	=71	=71	=71	=71	=71	=71	=71
!	!	!LO:DY:a	!	!LO:DY:rj:a:t=for&colon;	!	!LO:DY:a:t=for&colon;	!	!	!	!	!	!	!
8.A\L	.	fz	8.c#/L	f	8a\L	f	2.ryy	2.ryy	2.ryy	4a\	-la	2.ryy	2.ryy
.	.	.	.	.	16cc#\L	.	.	.	.	.	.	.	.
16B\Jk	.	.	16d/Jk	.	16dd\JJ	.	.	.	.	.	.	.	.
8c#\L	.	.	8e/L	.	8ee\L	.	.	.	.	2r	.	.	.
8c#\	.	.	8e/J	.	8ee\J	.	.	.	.	.	.	.	.
8B\	.	.	16e/LL	.	16ee\LL	.	.	.	.	.	.	.	.
.	.	.	16d/	.	16dd\	.	.	.	.	.	.	.	.
8A\J	.	.	16d/	.	16dd\	.	.	.	.	.	.	.	.
.	.	.	16c#/JJ	.	16cc#\JJ	.	.	.	.	.	.	.	.
=72	=72	=72	=72	=72	=72	=72	=72	=72	=72	=72	=72	=72	=72
!	!	!	!	!	!	!	!	!	!	!LO:TX:a:t=7	!	!	!
8G#\L	.	.	16c#/LL	.	16cc#\LL	.	2.ryy	2.ryy	2.ryy	0.r	.	2.ryy	2.ryy
.	.	.	16B/	.	16b\	.	.	.	.	.	.	.	.
8A\	.	.	16B/	.	16b\	.	.	.	.	.	.	.	.
.	.	.	16c#/JJ	.	16cc#\JJ	.	.	.	.	.	.	.	.
!	!	!	!	!	!LO:LB:g=original	!	!	!	!	!	!	!	!
8B\	.	.	16c#/LL	.	16cc#\LL	.	.	.	.	.	.	.	.
.	.	.	16d/	.	16dd\	.	.	.	.	.	.	.	.
8G#\	6	.	16d#X/	.	16dd#X\	.	.	.	.	.	.	.	.
.	.	.	16e/JJ	.	16ee\JJ	.	.	.	.	.	.	.	.
8A\	.	.	16dn/LL	.	16ddn\LL	.	.	.	.	.	.	.	.
.	.	.	16c#/	.	16cc#\	.	.	.	.	.	.	.	.
8c#\J	6	.	16B/	.	16b\	.	.	.	.	.	.	.	.
.	.	.	16A/JJ	.	16a\JJ	.	.	.	.	.	.	.	.
=73	=73	=73	=73	=73	=73	=73	=73	=73	=73	=73	=73	=73	=73
*	*	*	*tremolo	*	*	*	*	*	*	*	*	*	*
8d\L	6	.	8f#/L	.	16a#X\LL	.	2.ryy	2.ryy	2.ryy	.	.	2.ryy	2.ryy
.	.	.	.	.	16b\	.	.	.	.	.	.	.	.
8d\	_	.	8f#/	.	16a#\	.	.	.	.	.	.	.	.
.	.	.	.	.	16b\JJ	.	.	.	.	.	.	.	.
8d\	.	.	8f#/	.	16a#\LL	.	.	.	.	.	.	.	.
.	.	.	.	.	16b\	.	.	.	.	.	.	.	.
8d\	x	.	8f#/	.	16cc#\	.	.	.	.	.	.	.	.
.	.	.	.	.	16b\JJ	.	.	.	.	.	.	.	.
8d#X\	5	.	8f#/	.	16dd\LL	.	.	.	.	.	.	.	.
.	.	.	.	.	16cc#\	.	.	.	.	.	.	.	.
8d#\J	.	.	8f#/J	.	16b\	.	.	.	.	.	.	.	.
.	.	.	.	.	16an\JJ	.	.	.	.	.	.	.	.
*	*	*	*Xtremolo	*	*	*	*	*	*	*	*	*	*
=74	=74	=74	=74	=74	=74	=74	=74	=74	=74	=74	=74	=74	=74
4e\	4	.	8c#/L	.	8a/L	.	2.ryy	2.ryy	2.ryy	.	.	2.ryy	2.ryy
.	.	.	16B/L	.	16g#/L	.	.	.	.	.	.	.	.
.	.	.	16c#/JJ	.	16a/JJ	.	.	.	.	.	.	.	.
4E\	3	.	8B/L	.	16g#/LL	.	.	.	.	.	.	.	.
.	.	.	.	.	16e/	.	.	.	.	.	.	.	.
.	.	.	8g#/J	.	16f#/	.	.	.	.	.	.	.	.
.	.	.	.	.	16g#/JJ	.	.	.	.	.	.	.	.
8r	.	.	16a/LL	.	16a/LL	.	.	.	.	.	.	.	.
.	.	.	16g#/	.	16g#/	.	.	.	.	.	.	.	.
8E\	.	.	16a/	.	16a/	.	.	.	.	.	.	.	.
.	.	.	16b/JJ	.	16b/JJ	.	.	.	.	.	.	.	.
!LO:PB:g=original	!	!	!LO:LB:g=original	!	!	!	!	!	!	!	!	!	!
=75	=75	=75	=75	=75	=75	=75	=75	=75	=75	=75	=75	=75	=75
4A\	.	.	16cc#\LL	.	16cc#\LL	.	2.ryy	2.ryy	2.ryy	.	.	2.ryy	2.ryy
.	.	.	16ee\	.	16ee\	.	.	.	.	.	.	.	.
.	.	.	16dd\	.	16dd\	.	.	.	.	.	.	.	.
.	.	.	16cc#\JJ	.	16cc#\JJ	.	.	.	.	.	.	.	.
!	!	!	!	!	!LO:LB:g=original	!	!	!	!	!	!	!	!
4c#\	6	.	16b/LL	.	16b/LL	.	.	.	.	.	.	.	.
.	.	.	16a/	.	16a/	.	.	.	.	.	.	.	.
.	.	.	16g#/	.	16g#/	.	.	.	.	.	.	.	.
.	.	.	16a/JJ	.	16a/JJ	.	.	.	.	.	.	.	.
4G#\	6 5	.	8.b\L 8.e\	.	8.b\L 8.e\	.	.	.	.	.	.	.	.
.	.	.	32cc#\LL	.	32cc#\LL	.	.	.	.	.	.	.	.
.	.	.	32dd\JJJ	.	32dd\JJJ	.	.	.	.	.	.	.	.
=76	=76	=76	=76	=76	=76	=76	=76	=76	=76	=76	=76	=76	=76
4A\	.	.	16cc#\LL	.	16cc#\LL	.	2.ryy	2.ryy	2.ryy	1.r	.	2.ryy	2.ryy
.	.	.	16ee\	.	16ee\	.	.	.	.	.	.	.	.
.	.	.	16dd\	.	16dd\	.	.	.	.	.	.	.	.
.	.	.	16cc#\JJ	.	16cc#\JJ	.	.	.	.	.	.	.	.
4c#\	6	.	16b/LL	.	16b/LL	.	.	.	.	.	.	.	.
.	.	.	16a/	.	16a/	.	.	.	.	.	.	.	.
.	.	.	16g#/	.	16g#/	.	.	.	.	.	.	.	.
.	.	.	16a/JJ	.	16a/JJ	.	.	.	.	.	.	.	.
4G#\	6 5	.	8.b\L 8.e\	.	8.b\L 8.e\	.	.	.	.	.	.	.	.
.	.	.	32cc#\LL	.	32cc#\LL	.	.	.	.	.	.	.	.
.	.	.	32dd\JJJ	.	32dd\JJJ	.	.	.	.	.	.	.	.
=77	=77	=77	=77	=77	=77	=77	=77	=77	=77	=77	=77	=77	=77
!LO:TX:a:t=P:problem=mixed beam	!	!	!	!	!	!	!	!	!	!	!	!	!
8A\L	.	.	16cc#\LL	.	16cc#\LL	.	2.ryy	2.ryy	2.ryy	.	.	2.ryy	2.ryy
.	.	.	16a\JJ	.	16a\	.	.	.	.	.	.	.	.
8D\	6	.	16f#/LL	.	16dd\	.	.	.	.	.	.	.	.
.	.	.	16d/JJ	.	16b\JJ	.	.	.	.	.	.	.	.
8E\	4	.	4c#/	.	4a/	.	.	.	.	.	.	.	.
8E\	.	.	.	.	.	.	.	.	.	.	.	.	.
8EE/	3	.	4B/	.	4g#/	.	.	.	.	.	.	.	.
8EE/J	.	.	.	.	.	.	.	.	.	.	.	.	.
=78	=78	=78	=78	=78	=78	=78	=78	=78	=78	=78	=78	=78	=78
!LO:TX:a:t=P:problem=mixed beam	!	!	!	!	!	!	!	!	!	!	!	!	!
8AA/L	.	.	8c#/L	.	8a/L	.	2.ryy	2.ryy	2.ryy	2.r	.	2.ryy	2.ryy
8A\J	.	.	8e/J	.	8cc#/J	.	.	.	.	.	.	.	.
4AA/	.	.	4c#/	.	4a/	.	.	.	.	.	.	.	.
4r	.	.	4r	.	4r	.	.	.	.	.	.	.	.
==	==	==	==	==	==	==	==	==	==	==	==	==	==
*-	*-	*-	*-	*-	*-	*-	*-	*-	*-	*-	*-	*-	*-
!!!system-decoration: [(s1,s2)],[(s3,s4,s5,s6)][(s7,s8)],[s9]
!!!ENC: Tomasz Grochalski
!!!END: 2020-07-16
!!!ENC: Leszek Kubiak
!!!END: 2022-01-17
